X:1
T:Jesus Wants Us to Help
T:Jesus Wants Us to Help
T:Ira Bishop Wilson
T:Eda L. Formhals, arr. by E.S.T., 1915
T:Public Domain Courtesy of the Cyber Hymnal™
C:Ira Bishop Wilson
Z:Public Domain
Z:Courtesy of the Cyber Hymnal™
%%score ( 1 2 ) ( 3 4 )
L:1/8
Q:1/4=105
M:4/4
K:F
V:1 treble 
V:2 treble 
V:3 bass 
V:4 bass 
V:1
 C2 | [CA]2 [CA]2 [CGc]2 [B,G]>[CA] | [A,CF]2 [A,CF]2 [B,C]3 [B,C] | (CD)EF [CG]2 [CF]2 | %4
w: 1.~A|rain- drop fell on a|blos- som gay, That|grew * on the ap- ple|
w: 2.~A|sun- beam danced thro’ a|win- dow low, And|said * to a wee sick|
w: 3.~A|lit- tle child with a|sweet, kind word, Brought|cheer * to the lone and|
 [DGB]6 D2 | [DB]2 [DB]2 [DAd]2 [CA]>[DB] | [B,DG]2 [B,DB]2 [CD]3 [CA] | A2 GF D2 G2 | [B,F]6 z2 || %9
w: tree; “I’ve|hur- ried down on this|rain- y day, To|help you to grow,” said|he.|
w: boy: “I’ve|come to help with my|cheer- y glow; I|bring you my light and|joy.”|
w: sad; She|tried to help, un- til|those who heard Found|com- fort to make them|glad.|
"^Refrain" [CAc]2 [CAc]2 [CAc] [DAd]2 [CAc] | [CFA]2 [FA]2 A4 | [CFA]2 A>A [CEB]2 [CFc]2 | %12
w: |||
w: Je- sus wants us to|help Him, too,|Each in our own sweet|
w: |||
 ([=B,FA]4 [CEG]4) | [CAc]2 [CAc]2 [CAc] [DAd]2 [CAc] | [CFA]2 [^CGA]2 (B2 A2) | %15
w: |||
w: way; *|If we try it, we’ll|sure- ly do *|
w: |||
 [=B,G]2 D>A [_B,CG]3 [A,CF] | [A,CF]6 z2 |] %17
w: ||
w: Some- thing for Him each|day.|
w: ||
V:2
 x2 | x8 | x8 | A,2 x6 | x8 | x8 | x8 | =B,8 | x8 || x8 | x4 (E2 D2) | x2 [CF]2 x4 | x8 | x8 | %14
 x4 [=C^F]4 | x2 _B,2 x4 | x8 |] %17
V:3
 z2 | F,,2 C,2 E,2 C,2 | F,,2 C,2 E,2 C,2 | F,,2 C,2 A,,2 _A,,2 | (G,,2 D,2 G,2) z2 | %5
 G,,2 D,2 ^F,2 D,2 | G,,2 D,2 (^F,2 D,2) | z2 D,2 G,2 F,2 | ([C,E,]2 G,,2 [C,E,]2 C,,2) || %9
 [F,,F,]2 [C,,C,]2 [F,,F,]2 [C,,C,]2 | [F,,F,]2 [C,,C,]2 ([F,,F,]2 [C,,C,]2) | %11
 [F,,F,]2 [F,,F,]2 [G,,G,]2 [A,,A,]2 | ([D,,D,]2 G,,2 C,B,,A,,G,,) | %13
 [F,,F,]2 [C,,C,]2 [F,,F,]2 [C,,C,]2 | [F,,F,]2 [E,,E,]2 ([D,,D,]2 [D,,D,]2) | %15
 [G,,D,]2 [G,,F,]2 [C,E,]3 [F,,F,] | ([F,,F,]2 C,2 F,,2) z2 |] %17
V:4
 x2 | x8 | x8 | x8 | x8 | x8 | x8 | G,,8 | x8 || x8 | x8 | x8 | x8 | x8 | x8 | x8 | x8 |] %17

